X: 2039
T: Zannetme ki Giderken
C: Kenan Şavklı
O: Turkey
F: http://compmusic.upf.edu/node/140
N: huzzam--sarki--duyek--zannetme_ki--kenan_savkli
N: makam= huzzam
N: form= sarki
N: usul= duyek = 8/4
M: 8/4
L: 1/16
K: C _1/4B _3/4e ^3/4f 
Q: 1/4=120
%%MIDI tuningsystem comma53
z2 a_b ab ag (3gfe (3def g4  | z2 a2 g2 fg (3fed (3cde f4  | 
w:   |   | 
z2 ga _bc' ba (3bag gf g4  | z2 a_b ab ag (3gfe (3def g4  | 
w:   |   | 
z2 a2 g2 fg (3fed (3cde f4  | z2 g2 f2 ed dc cB B4  | 
w:   |   | 
c2 d4 e2 f3e gf ed  | d8 c3/2B/ AG d4  | \
w:  Zan net me  ki  *  gi der  |  ken  SAZ  | 
d2 e4 e2 e3d c2 df  | 
w:  bi ri  var_ ağ *  la ya  | 
{f}ed e4 d2 f2 ed e3d  | f2 g4 ga g3/2f/ eg {f}fe ed  | 
w:  *  cak   |  bi ri  var  *  ağ *  *  *  *  la *  ya  | 
d8 cd ef d4  | z2 a_b ab ag (3gfe (3def g4  | \
w:  cak   SAZ  |   | 
z2 a2 g2 fg (3fed (3cde f4  | 
w:   | 
z2 g2 f2 ed dc cB B4  | c2 d4 e2 f3e gf ed  | \
w:   |  Zan net me  ki  *  gi der  | 
d8 c3/2B/ AG d4  | 
w:  ken  SAZ  | 
d2 e4 e2 e3d c2 df  | {f}ed e4 d2 f2 ed e3d  | \
w:  bi ri  var_ ağ *  la ya  |  *  cak   | 
f2 g4 ga g3/2f/ eg {f}fe ed  | 
w:  bi ri  var  *  ağ *  *  *  *  la *  ya  | 
d8 cd ef d4  | z2 a_b ab ag (3gfe (3def g4  | \
w:  cak   SAZ  |   | 
z2 a2 g2 fg (3fed (3cde f4  | 
w:   | 
z2 ga _bc' ba (3bag gf g4  | z2 a2 b2 c'd' (3c'bc' (3bab a4  | 
w:   |  El de  de *  ğil   | 
(3_bab a4 ab ag fe f4  | f2 g4 g2 g3/2a/ ga g3/2f/ ef  | 
w:  bel *  *  *  ki  *  de   |  kal bi mi  sız *  *  *  la *  ta  | 
{f}ed e4 d2 (3gag (3fed e3d  | z2 g2 f2 ed {e}d3c dc cB  | 
w:  *  cak   |  kal bi mi  *  *  sız *  la *  ta  | 
{^A}B8 GB G2 B4  | z2 a_b ab ag (3gfe (3def g4  | \
w:  *  cak   SAZ  |   | 
z2 a2 g2 fg (3fed (3cde f4  | 
w:   | 
z2 ga _bc' ba (3bag gf g4  | z2 a2 b2 c'd' (3c'bc' (3bab a4  | 
w:   |  El de  de *  ğil   | 
(3_bab a4 ab ag fe f4  | f2 g4 g2 g3/2a/ ga g3/2f/ ef  | 
w:  bel *  *  *  ki  *  de   |  kal bi mi  sız *  *  *  la *  ta  | 
{f}ed e4 d2 (3gag (3fed e3d  | z2 g2 f2 ed {e}d3c dc cB  | 
w:  *  cak   |  kal bi mi  *  *  sız *  la *  ta  | 
{^A}B8 GB G2 B4  | z2 a_b ab ag (3gfe (3def g4  | \
w:  *  cak   SAZ  |   | 
z2 a2 g2 fg (3fed (3cde f4  | 
w:   | 
z2 g^a bc' ba g3/2f/ ga b4  | g2 b6 d'3/2c'/ b^a b4  | \
w:   |  Bu  has ret *  *  *  lik   | 
ab d'4 bd' (3c'bc' (3bab a4  | 
w:  gön *  lüm *  *  de   | 
c'_b a4 ba g3b ag fe  | f8 (3gag (3fed e3d  | \
w:  yıl *  lar  yı *  lı  *  ka *  la  |  cak  SAZ  | 
f2 g4 ga g3/2f/ eg {f}fe ed  | 
w:  yıl lar  yı *  lı  *  *  *  *  ka *  la  | 
d8 cd ef d4  | z2 a_b ab ag (3gfe (3def g4  | \
w:  cak   SAZ  |   | 
z2 a2 g2 fg (3fed (3cde f4  | 
w:   | 
z2 g^a bc' ba g3/2f/ ga b4  | g2 b6 d'3/2c'/ b^a b4  | \
w:  SAZ  |  Bu  has ret *  *  *  lik   | 
ab d'4 bd' (3c'bc' (3bab a4  | 
w:  gön *  lüm *  *  de   | 
c'_b a4 ba g3b ag fe  | f8 (3gag (3fed e3d  | \
w:  yıl *  lar  yı *  lı  *  ka *  la  |  cak  SAZ  | 
f2 g4 ga g3/2f/ eg {f}fe ed  | 
w:  yıl lar  yı *  lı  *  *  *  *  ka *  la  | 
d8 cd ef d4  | z2 a_b ab ag (3gfe (3def g4  | \
w:  cak   SAZ  |   | 
z2 a2 g2 fg (3fed (3cde f4  | 
w:   | 
z2 ga _bc' ba (3bag gf g4  | z2 a2 b2 c'd' (3c'bc' (3bab a4  | 
w:  SAZ  |  El de  de *  ğil   | 
(3_bab a4 ab ag fe f4  | f2 g4 g2 g3/2a/ ga g3/2f/ ef  | 
w:  bel *  *  *  ki  *  de   |  kal bi mi  sız *  *  *  la *  ta  | 
{f}ed e4 d2 (3gag (3fed e3d  | z2 g2 f2 ed {e}d3c dc cB  | 
w:  *  cak   |  kal bi mi  *  *  sız *  la *  ta  | 
{^A}B8 GB G2 B4  | |


